!!!OTL: LEBE WOHL ES RUFT DIE STUNDE
!!!ARE: Europa, Mitteleuropa, Deutschland
!!!SCT: B0580
!!!YEM: Copyright 1995, estate of Helmut Schaffrath.
**kern
*ICvox
*Ivox
*M3/4
*k[b-e-a-]
*E-:
{8.g
16g
=1
4.a-
8g
8a-
8g
=2
4f
4B-}
{8.e-
16e-
=3
4d
4d
8f
8g
=4
4e-
4r}
{8.g
16g
=5
4.a-
8g
8a-
8g
=6
4f
4B-}
{8.e-
16e-
=7
4d
4d
8f
8g
=8
4e-
4r}
{12e-
12e-
12e-
=9
4cc
8.a-
16a-
12a-
12a-
12cc
=10
4b-
4g}
{12g
12f
12g
=11
4b-
8.a-
16g
12f
12e-
12f
=12
2g}
{12e-
12e-
12e-
=13
4cc
8.a-
16a-
12a-
12a-
12cc
=14
4b-
4g}
{12g
12f
12g
=15
4b-
8.a-
16g
12f
12e-
12f
=16
2g}
==
!!!AGN: Staende -, Soldaten - Lied, Abschied
!!!ONB: ESAC (Essen Associative Code) Database: BOEHME
!!!AMT: simple triple
!!!AIN: vox
!!!EED: Helmut Schaffrath
!!!EEV: 1.0
*-
